src/telerik-icons/solid/pane-freeze.svg

<?xml version="1.0" encoding="utf-8"?>
<svg xmlns="http://www.w3.org/2000/svg" width="512" height="512" viewBox="0 0 512 512">
  <path d="M32 32v416h416V32H32zm256 32 96 96h-64l-96-96h64zm-128 0 96 96h-64L96 64h64zM64 96l96 96v64l-96-96V96zm0 128 96 96v64l-96-96v-64zm0 192v-64l64 64H64zm224 0h-96v-96h96v96zm0-128h-96v-96h96v96zm128 128h-96v-96h96v96zm0-128h-96v-96h96v96zM352 64h64v64l-64-64z"/>
</svg>

<?xml version="1.0" encoding="utf-8"?>
<!-- Generator: Adobe Illustrator 19.2.1, SVG Export Plug-In . SVG Version: 6.00 Build 0)  -->
<svg xmlns="http://www.w3.org/2000/svg" width="512" height="512" viewBox="0 0 512 512">
<path d="M32,32v416h416V32H32z M288,64l96,96h-64l-96-96H288z M160,64l96,96h-64L96,64H160z M64,96l96,96v64l-96-96V96z M64,224
	l96,96v64l-96-96V224z M64,416v-64l64,64H64z M288,416h-96v-96h96V416z M288,288h-96v-96h96V288z M416,416h-96v-96h96V416z M416,288
	h-96v-96h96V288z M352,64h64v64L352,64z" />
</svg>
